X:2
T:Balquhidder Lasses - 1st part
S:Jim Coon, internet
Z:Nigel Gatherer
N:Slightly modified by Erich Marschner, to reflect how I learned it.
N:Learned from Tom Benoit of the Old Guard Fife and Drum Corps (http://www.ogfdc.org/index.php).
N:As played by the Musick (fifes and drums) of the 1st Maryland Regiment, ca. 1975
M:4/4
L:1/8
K:Edor
BA | G2 FG EFGA  | B2 B2 e3 e  | d2 A2 ABAG | DEFG A2 |
BA | G2 FG EFGA  | B2 B2 e3 e  | d2 A2 BAGF | E6      :|
B2 | e2 ef e2 B2 | efgf  e2 Bc | d2 de dAFA | DEFG A2  |
B2 | e2 ef e2 B2 | efgf  e2 Bc | d2 A2 BAGF | E6       |
B2 | e2 ef e2 B2 | efgf  e2 Bc | d2 de dAFA | DEFG A2  |
BA | G2 FG EFGA  | B2 B2 e3 e  | d2 A2 BAGF | E6      |]
